server/website/public/icons/base/server.svg

<svg width="48" height="48" viewBox="0 0 48 48" fill="none" xmlns="http://www.w3.org/2000/svg">
<path d="M6.22222 0H41.7778C42.3671 0 42.9324 0.229869 43.3491 0.63904C43.7659 1.04821 44 1.60316 44 2.18182V10.9091C44 11.4877 43.7659 12.0427 43.3491 12.4519C42.9324 12.861 42.3671 13.0909 41.7778 13.0909H6.22222C5.63285 13.0909 5.06762 12.861 4.65087 12.4519C4.23413 12.0427 4 11.4877 4 10.9091V2.18182C4 1.60316 4.23413 1.04821 4.65087 0.63904C5.06762 0.229869 5.63285 0 6.22222 0ZM6.22222 17.4545H41.7778C42.3671 17.4545 42.9324 17.6844 43.3491 18.0936C43.7659 18.5028 44 19.0577 44 19.6364V28.3636C44 28.9423 43.7659 29.4972 43.3491 29.9064C42.9324 30.3156 42.3671 30.5455 41.7778 30.5455H6.22222C5.63285 30.5455 5.06762 30.3156 4.65087 29.9064C4.23413 29.4972 4 28.9423 4 28.3636V19.6364C4 19.0577 4.23413 18.5028 4.65087 18.0936C5.06762 17.6844 5.63285 17.4545 6.22222 17.4545ZM6.22222 34.9091H41.7778C42.3671 34.9091 42.9324 35.139 43.3491 35.5481C43.7659 35.9573 44 36.5123 44 37.0909V45.8182C44 46.3968 43.7659 46.9518 43.3491 47.361C42.9324 47.7701 42.3671 48 41.7778 48H6.22222C5.63285 48 5.06762 47.7701 4.65087 47.361C4.23413 46.9518 4 46.3968 4 45.8182V37.0909C4 36.5123 4.23413 35.9573 4.65087 35.5481C5.06762 35.139 5.63285 34.9091 6.22222 34.9091ZM17.3333 8.72727H19.5556V4.36364H17.3333V8.72727ZM17.3333 26.1818H19.5556V21.8182H17.3333V26.1818ZM17.3333 43.6364H19.5556V39.2727H17.3333V43.6364ZM8.44444 4.36364V8.72727H12.8889V4.36364H8.44444ZM8.44444 21.8182V26.1818H12.8889V21.8182H8.44444ZM8.44444 39.2727V43.6364H12.8889V39.2727H8.44444Z" fill="black"/>
</svg>

<svg width="48" height="48" fill="none" xmlns="http://www.w3.org/2000/svg"><path d="M6.222 0h35.556c.59 0 1.154.23 1.571.639.417.41.651.964.651 1.543v8.727c0 .579-.234 1.134-.65 1.543-.418.409-.983.639-1.572.639H6.222c-.59 0-1.154-.23-1.571-.64A2.162 2.162 0 014 10.91V2.182c0-.579.234-1.134.65-1.543C5.069.229 5.634 0 6.223 0zm0 17.454h35.556c.59 0 1.154.23 1.571.64.417.409.651.964.651 1.542v8.728c0 .578-.234 1.133-.65 1.542-.418.41-.983.64-1.572.64H6.222c-.59 0-1.154-.23-1.571-.64A2.162 2.162 0 014 28.364v-8.728c0-.578.234-1.133.65-1.542.418-.41.983-.64 1.572-.64zm0 17.455h35.556c.59 0 1.154.23 1.571.64.417.408.651.963.651 1.542v8.727c0 .579-.234 1.134-.65 1.543-.418.41-.983.639-1.572.639H6.222c-.59 0-1.154-.23-1.571-.639A2.162 2.162 0 014 45.818v-8.727c0-.579.234-1.134.65-1.543.418-.409.983-.639 1.572-.639zM17.333 8.727h2.223V4.364h-2.223v4.363zm0 17.455h2.223v-4.364h-2.223v4.364zm0 17.454h2.223v-4.363h-2.223v4.363zM8.444 4.364v4.363h4.445V4.364H8.444zm0 17.454v4.364h4.445v-4.364H8.444zm0 17.455v4.363h4.445v-4.363H8.444z" fill="#000"/></svg>
